;FLAVOR:Marlin
;TIME:4130
;Filament used: 5.05155m
;Layer height: 0.2
;MINX:37.665
;MINY:26.533
;MINZ:0.2
;MAXX:181.347
;MAXY:187.806
;MAXZ:5
;Generated with Cura_SteamEngine 5.0.0-beta+1
M140 S60
M105
M190 S60
M104 S200
M105
M109 S200
M82 ;absolute extrusion mode
G21 ;metric values
G90 ;absolute positioning
M82 ;set extruder to absolute mode
M107 ;start with the fan off
G28 X0 Y0 ;move X/Y to min endstops
G28 Z0 ;move Z to min endstops
G1 Z15.0 F100 ;move the platform down 15mm
G92 E0 ;zero the extruded length
G1 F200 E3 ;extrude 3mm of feed stock
G92 E0 ;zero the extruded length again
G1 F100
G0 Y20 F100
M117 Printing...
G5
G92 E0
G92 E0
G1 F2400 E-6
;LAYER_COUNT:25
;LAYER:0
M107
M204 S3000
M205 X10 Y10
G1 F600 Z0.275
G0 F3000 X56.425 Y29.866 Z0.275
G0 X55.998 Y31.539
M204 S1800
M205 X8 Y8
;TYPE:SKIRT
G1 F600 Z0.2
G1 F2400 E0
G1 X56.063 Y30.963 E0.02699
G1 X56.206 Y30.402 E0.05395
G1 X56.425 Y29.866 E0.08091
G1 X56.716 Y29.365 E0.10789
G1 X57.224 Y28.749 E0.14507
G1 X58.214 Y27.759 E0.21026
G1 X58.651 Y27.379 E0.23723
G1 X59.136 Y27.062 E0.26421
G1 X59.66 Y26.815 E0.29118
G1 X60.213 Y26.643 E0.31815
G1 X60.785 Y26.548 E0.34515
G1 X61.364 Y26.533 E0.37212
G1 X61.94 Y26.598 E0.39911
G1 X62.501 Y26.741 E0.42607
G1 X63.037 Y26.96 E0.45303
G1 X63.538 Y27.251 E0.48001
G1 X64.154 Y27.759 E0.51718
G1 X180.121 Y143.723 E8.15371
G1 X180.501 Y144.16 E8.18068
G1 X180.818 Y144.645 E8.20766
G1 X181.065 Y145.169 E8.23463
G1 X181.237 Y145.722 E8.2616
G1 X181.332 Y146.294 E8.2886
G1 X181.347 Y146.873 E8.31557
G1 X181.282 Y147.449 E8.34256
G1 X181.139 Y148.01 E8.36952
G1 X180.92 Y148.546 E8.39648
G1 X180.629 Y149.047 E8.42346
G1 X180.121 Y149.663 E8.46063
G1 X179.13 Y150.654 E8.52589
G1 X178.693 Y151.034 E8.55286
G1 X178.208 Y151.351 E8.57984
G1 X177.684 Y151.598 E8.60681
G1 X177.131 Y151.77 E8.63378
G1 X176.559 Y151.865 E8.66078
G1 X175.98 Y151.88 E8.68775
G1 X175.404 Y151.815 E8.71474
G1 X174.843 Y151.672 E8.7417
G1 X174.307 Y151.453 E8.76866
G1 X173.806 Y151.162 E8.79564
G1 X173.19 Y150.654 E8.83282
G1 X57.224 Y34.689 E16.46934
G1 X56.844 Y34.252 E16.49631
G1 X56.527 Y33.767 E16.52329
G1 X56.28 Y33.243 E16.55026
G1 X56.108 Y32.69 E16.57723
G1 X56.013 Y32.118 E16.60423
G1 X55.998 Y31.539 E16.6312
M204 S3000
M205 X10 Y10
G0 F3000 X56.558 Y31.879
M204 S1800
M205 X8 Y8
G1 F2400 X56.574 Y31.34 E16.65631
G1 X56.669 Y30.809 E16.68143
G1 X56.843 Y30.299 E16.70652
G1 X57.089 Y29.819 E16.73163
G1 X57.404 Y29.381 E16.75676
G1 X57.62 Y29.145 E16.77165
G1 X58.61 Y28.155 E16.83685
G1 X59.019 Y27.803 E16.86197
G1 X59.475 Y27.515 E16.88709
G1 X59.968 Y27.298 E16.91217
G1 X60.488 Y27.156 E16.93727
G1 X61.024 Y27.093 E16.9624
G1 X61.563 Y27.109 E16.98751
G1 X62.094 Y27.205 E17.01263
G1 X62.604 Y27.378 E17.03771
G1 X63.084 Y27.624 E17.06283
G1 X63.522 Y27.939 E17.08795
G1 X63.758 Y28.155 E17.10284
G1 X179.725 Y144.119 E24.73937
G1 X180.077 Y144.528 E24.7645
G1 X180.365 Y144.984 E24.78961
G1 X180.582 Y145.477 E24.81469
G1 X180.724 Y145.997 E24.83979
G1 X180.787 Y146.533 E24.86492
G1 X180.771 Y147.072 E24.89003
G1 X180.676 Y147.603 E24.91515
G1 X180.502 Y148.113 E24.94024
G1 X180.256 Y148.593 E24.96536
G1 X179.941 Y149.031 E24.99048
G1 X179.725 Y149.267 E25.00538
G1 X178.734 Y150.258 E25.07064
G1 X178.325 Y150.61 E25.09576
G1 X177.869 Y150.898 E25.12088
G1 X177.376 Y151.115 E25.14596
G1 X176.856 Y151.257 E25.17106
G1 X176.32 Y151.32 E25.19619
G1 X175.781 Y151.304 E25.2213
G1 X175.25 Y151.208 E25.24642
G1 X174.74 Y151.035 E25.2715
G1 X174.26 Y150.789 E25.29661
G1 X173.822 Y150.474 E25.32174
G1 X173.586 Y150.258 E25.33663
G1 X57.62 Y34.293 E32.97316
G1 X57.268 Y33.884 E32.99829
G1 X56.98 Y33.428 E33.0234
G1 X56.763 Y32.935 E33.04848
G1 X56.621 Y32.415 E33.07358
G1 X56.558 Y31.879 E33.09871
M204 S3000
M205 X10 Y10
G0 F3000 X57.115 Y31.655
M204 S1800
M205 X8 Y8
G1 F2400 X57.165 Y31.162 E33.12179
G1 X57.293 Y30.683 E33.14487
G1 X57.497 Y30.231 E33.16796
G1 X57.771 Y29.817 E33.19108
G1 X58.016 Y29.541 E33.20827
G1 X59.006 Y28.551 E33.27346
G1 X59.384 Y28.23 E33.29655
G1 X59.808 Y27.973 E33.31964
G1 X60.269 Y27.788 E33.34277
G1 X60.752 Y27.679 E33.36582
G1 X61.248 Y27.65 E33.38896
G1 X61.741 Y27.7 E33.41203
G1 X62.22 Y27.828 E33.43512
G1 X62.672 Y28.032 E33.45821
G1 X63.086 Y28.306 E33.48133
G1 X63.362 Y28.551 E33.49851
G1 X179.329 Y144.515 E41.13504
G1 X179.65 Y144.893 E41.15813
G1 X179.907 Y145.317 E41.18122
G1 X180.092 Y145.778 E41.20435
G1 X180.201 Y146.261 E41.2274
G1 X180.23 Y146.757 E41.25054
G1 X180.18 Y147.25 E41.27361
G1 X180.052 Y147.729 E41.2967
G1 X179.848 Y148.181 E41.31979
G1 X179.574 Y148.595 E41.34291
G1 X179.329 Y148.871 E41.36009
G1 X178.338 Y149.862 E41.42535
G1 X177.96 Y150.183 E41.44844
G1 X177.536 Y150.44 E41.47153
G1 X177.075 Y150.625 E41.49466
G1 X176.592 Y150.734 E41.51772
G1 X176.096 Y150.763 E41.54085
G1 X175.603 Y150.713 E41.56393
G1 X175.124 Y150.585 E41.58701
G1 X174.672 Y150.381 E41.6101
G1 X174.258 Y150.107 E41.63322
G1 X173.982 Y149.862 E41.65041
G1 X58.016 Y33.897 E49.28693
G1 X57.695 Y33.519 E49.31002
G1 X57.438 Y33.095 E49.33311
G1 X57.253 Y32.634 E49.35624
G1 X57.144 Y32.151 E49.3793
G1 X57.115 Y31.655 E49.40243
M204 S3000
M205 X10 Y10
G0 F3000 X57.681 Y31.901
M204 S1800
M205 X8 Y8
G1 F2400 X57.688 Y31.453 E49.4233
G1 X57.775 Y31.013 E49.44418
G1 X57.938 Y30.595 E49.46507
G1 X58.173 Y30.213 E49.48596
G1 X58.412 Y29.937 E49.50296
G1 X59.402 Y28.947 E49.56815
G1 X59.746 Y28.659 E49.58904
G1 X60.136 Y28.437 E49.60994
G1 X60.559 Y28.288 E49.63082
G1 X61.002 Y28.216 E49.65172
G1 X61.45 Y28.223 E49.67258
G1 X61.89 Y28.31 E49.69347
G1 X62.308 Y28.473 E49.71436
G1 X62.69 Y28.708 E49.73524
G1 X62.966 Y28.947 E49.75224
G1 X178.933 Y144.911 E57.38877
G1 X179.221 Y145.255 E57.40966
G1 X179.443 Y145.645 E57.43055
G1 X179.592 Y146.068 E57.45144
G1 X179.664 Y146.511 E57.47234
G1 X179.657 Y146.959 E57.4932
G1 X179.57 Y147.399 E57.51408
G1 X179.407 Y147.817 E57.53498
G1 X179.172 Y148.199 E57.55586
G1 X178.933 Y148.475 E57.57286
G1 X177.942 Y149.466 E57.63812
G1 X177.598 Y149.754 E57.65901
G1 X177.208 Y149.976 E57.67991
G1 X176.785 Y150.125 E57.70079
G1 X176.342 Y150.197 E57.72169
G1 X175.894 Y150.19 E57.74255
G1 X175.454 Y150.103 E57.76344
G1 X175.036 Y149.94 E57.78433
G1 X174.654 Y149.705 E57.80521
G1 X174.378 Y149.466 E57.82221
G1 X58.412 Y33.501 E65.45874
G1 X58.124 Y33.157 E65.47963
G1 X57.902 Y32.767 E65.50052
G1 X57.753 Y32.344 E65.52141
G1 X57.681 Y31.901 E65.54231
M204 S3000
M205 X10 Y10
G0 F3000 X58.235 Y31.674
M204 S1800
M205 X8 Y8
G1 F2400 X58.283 Y31.281 E65.56074
G1 X58.41 Y30.907 E65.57913
G1 X58.61 Y30.565 E65.59758
G1 X58.808 Y30.333 E65.61178
G1 X59.798 Y29.343 E65.67698
G1 X60.104 Y29.093 E65.69538
G1 X60.455 Y28.91 E65.71381
G1 X60.835 Y28.8 E65.73223
G1 X61.229 Y28.77 E65.75063
G1 X61.622 Y28.818 E65.76906
G1 X61.996 Y28.945 E65.78746
G1 X62.338 Y29.145 E65.8059
G1 X62.57 Y29.343 E65.82011
G1 X178.537 Y145.307 E73.45663
G1 X178.787 Y145.613 E73.47503
G1 X178.97 Y145.964 E73.49346
G1 X179.08 Y146.344 E73.51188
G1 X179.11 Y146.738 E73.53028
G1 X179.062 Y147.131 E73.54872
G1 X178.935 Y147.505 E73.56711
G1 X178.735 Y147.847 E73.58556
G1 X178.537 Y148.079 E73.59976
G1 X177.546 Y149.07 E73.66502
G1 X177.24 Y149.32 E73.68342
G1 X176.889 Y149.503 E73.70185
G1 X176.509 Y149.613 E73.72027
G1 X176.115 Y149.643 E73.73867
G1 X175.722 Y149.595 E73.75711
G1 X175.348 Y149.468 E73.7755
G1 X175.006 Y149.268 E73.79395
G1 X174.774 Y149.07 E73.80815
G1 X58.808 Y33.105 E81.44468
G1 X58.558 Y32.799 E81.46308
G1 X58.375 Y32.448 E81.48151
G1 X58.265 Y32.068 E81.49993
G1 X58.235 Y31.674 E81.51833
M204 S3000
M205 X10 Y10
G0 F3000 X58.797 Y31.814
M204 S1800
M205 X8 Y8
G1 F2400 X58.815 Y31.48 E81.5339
G1 X58.91 Y31.16 E81.54945
G1 X59.204 Y30.729 E81.57374
G1 X60.194 Y29.739 E81.63893
G1 X60.457 Y29.533 E81.65449
G1 X60.761 Y29.394 E81.67005
G1 X61.089 Y29.332 E81.6856
G1 X61.423 Y29.35 E81.70117
G1 X61.743 Y29.445 E81.71672
G1 X62.174 Y29.739 E81.74101
G1 X178.141 Y145.703 E89.37754
G1 X178.347 Y145.966 E89.39309
G1 X178.486 Y146.27 E89.40866
G1 X178.548 Y146.598 E89.4242
G1 X178.53 Y146.932 E89.43978
G1 X178.435 Y147.252 E89.45532
G1 X178.141 Y147.683 E89.47961
G1 X177.15 Y148.674 E89.54487
G1 X176.887 Y148.88 E89.56043
G1 X176.583 Y149.019 E89.57599
G1 X176.255 Y149.081 E89.59154
G1 X175.921 Y149.063 E89.60711
G1 X175.601 Y148.968 E89.62265
G1 X175.17 Y148.674 E89.64695
G1 X59.204 Y32.709 E97.28347
G1 X58.998 Y32.446 E97.29903
G1 X58.859 Y32.142 E97.3146
G1 X58.797 Y31.814 E97.33014
M204 S3000
M205 X10 Y10
G0 F3000 X59.362 Y31.601
M204 S1800
M205 X8 Y8
G1 F2400 X59.438 Y31.353 E97.34222
G1 X59.6 Y31.125 E97.35524
G1 X60.59 Y30.135 E97.42043
G1 X60.799 Y29.983 E97.43247
G1 X61.044 Y29.901 E97.4445
G1 X61.302 Y29.897 E97.45651
G1 X61.55 Y29.973 E97.46859
G1 X61.778 Y30.135 E97.48161
G1 X177.745 Y146.099 E105.11814
G1 X177.897 Y146.308 E105.13017
G1 X177.979 Y146.553 E105.1422
G1 X177.983 Y146.811 E105.15422
G1 X177.907 Y147.059 E105.1663
G1 X177.745 Y147.287 E105.17932
G1 X176.754 Y148.278 E105.24458
G1 X176.545 Y148.43 E105.25661
G1 X176.3 Y148.512 E105.26864
G1 X176.042 Y148.516 E105.28066
G1 X175.794 Y148.44 E105.29274
G1 X175.566 Y148.278 E105.30576
G1 X59.6 Y32.313 E112.94229
G1 X59.448 Y32.104 E112.95432
G1 X59.366 Y31.859 E112.96635
G1 X59.362 Y31.601 E112.97836
M204 S3000
M205 X10 Y10
G0 F3000 X59.923 Y31.788
M204 S1800
M205 X8 Y8
G1 F2400 X59.925 Y31.64 E112.98526
G1 X59.996 Y31.521 E112.99171
G1 X60.986 Y30.531 E113.0569
G1 X61.115 Y30.458 E113.0638
G1 X61.263 Y30.46 E113.0707
G1 X61.382 Y30.531 E113.07715
G1 X177.349 Y146.495 E120.71368
G1 X177.422 Y146.624 E120.72058
G1 X177.42 Y146.772 E120.72747
G1 X177.349 Y146.891 E120.73392
G1 X176.358 Y147.882 E120.79918
G1 X176.229 Y147.955 E120.80608
G1 X176.081 Y147.953 E120.81297
G1 X175.962 Y147.882 E120.81943
G1 X59.996 Y31.917 E128.45595
G1 X59.923 Y31.788 E128.46286
M204 S3000
M205 X10 Y10
G1 F2400 E122.46286
G0 F3000 X59.624 Y32.088
G0 X51.654 Y39.794
M204 S1800
M205 X8 Y8
G1 F2400 E128.46286
G1 X51.998 Y39.506 E128.48375
G1 X52.388 Y39.284 E128.50464
G1 X52.811 Y39.135 E128.52553
G1 X53.254 Y39.063 E128.54642
G1 X53.702 Y39.07 E128.56729
G1 X54.142 Y39.157 E128.58817
G1 X54.56 Y39.32 E128.60906
G1 X54.942 Y39.555 E128.62995
G1 X55.218 Y39.794 E128.64695
G1 X171.184 Y155.758 E136.28344
G1 X171.472 Y156.102 E136.30433
G1 X171.694 Y156.492 E136.32523
G1 X171.843 Y156.915 E136.34611
G1 X171.915 Y157.358 E136.36701
G1 X171.908 Y157.806 E136.38787
G1 X171.821 Y158.246 E136.40876
G1 X171.658 Y158.664 E136.42965
G1 X171.423 Y159.046 E136.45053
G1 X171.184 Y159.322 E136.46753
G1 X170.193 Y160.313 E136.53279
G1 X169.849 Y160.601 E136.55368
G1 X169.459 Y160.823 E136.57458
G1 X169.036 Y160.972 E136.59546
G1 X168.593 Y161.044 E136.61636
G1 X168.145 Y161.037 E136.63722
G1 X167.705 Y160.95 E136.65811
G1 X167.287 Y160.787 E136.679
G1 X166.905 Y160.552 E136.69988
G1 X166.629 Y160.313 E136.71688
G1 X50.663 Y44.349 E144.35338
G1 X50.375 Y44.005 E144.37427
G1 X50.153 Y43.615 E144.39516
G1 X50.004 Y43.192 E144.41605
G1 X49.932 Y42.749 E144.43695
G1 X49.939 Y42.301 E144.45781
G1 X50.026 Y41.861 E144.47869
G1 X50.189 Y41.443 E144.49959
G1 X50.424 Y41.061 E144.52047
G1 X50.663 Y40.785 E144.53747
G1 X51.654 Y39.794 E144.60273
M204 S3000
M205 X10 Y10
G0 F3000 X51.613 Y42.449
M204 S1800
M205 X8 Y8
G1 F2400 X51.689 Y42.201 E144.61481
G1 X51.851 Y41.973 E144.62783
G1 X52.842 Y40.982 E144.69309
G1 X53.051 Y40.83 E144.70512
G1 X53.296 Y40.748 E144.71715
G1 X53.554 Y40.744 E144.72917
G1 X53.802 Y40.82 E144.74125
G1 X54.03 Y40.982 E144.75427
G1 X169.996 Y156.946 E152.39076
G1 X170.148 Y157.155 E152.4028
G1 X170.23 Y157.4 E152.41483
G1 X170.234 Y157.658 E152.42684
G1 X170.158 Y157.906 E152.43892
G1 X169.996 Y158.134 E152.45194
G1 X169.005 Y159.125 E152.5172
G1 X168.796 Y159.277 E152.52924
G1 X168.551 Y159.359 E152.54127
G1 X168.293 Y159.363 E152.55328
G1 X168.045 Y159.287 E152.56536
G1 X167.817 Y159.125 E152.57838
G1 X51.851 Y43.161 E160.21488
G1 X51.699 Y42.952 E160.22691
G1 X51.617 Y42.707 E160.23894
G1 X51.613 Y42.449 E160.25095
M204 S3000
M205 X10 Y10
G0 F3000 X52.174 Y42.636
M204 S1800
M205 X8 Y8
G1 F2400 X52.176 Y42.488 E160.25785
G1 X52.247 Y42.369 E160.2643
G1 X53.238 Y41.378 E160.32956
G1 X53.367 Y41.305 E160.33646
G1 X53.515 Y41.307 E160.34335
G1 X53.634 Y41.378 E160.34981
G1 X169.6 Y157.342 E167.9863
G1 X169.673 Y157.471 E167.9932
G1 X169.671 Y157.619 E168.00009
G1 X169.6 Y157.738 E168.00654
G1 X168.609 Y158.729 E168.0718
G1 X168.48 Y158.802 E168.07871
G1 X168.332 Y158.8 E168.0856
G1 X168.213 Y158.729 E168.09205
G1 X52.247 Y42.765 E175.72854
G1 X52.174 Y42.636 E175.73545
M204 S3000
M205 X10 Y10
G0 F3000 X51.048 Y42.662
M204 S1800
M205 X8 Y8
G1 F2400 X51.066 Y42.328 E175.75102
G1 X51.161 Y42.008 E175.76656
G1 X51.455 Y41.577 E175.79086
G1 X52.446 Y40.586 E175.85612
G1 X52.709 Y40.38 E175.87167
G1 X53.013 Y40.241 E175.88724
G1 X53.341 Y40.179 E175.90278
G1 X53.675 Y40.197 E175.91836
G1 X53.995 Y40.292 E175.9339
G1 X54.426 Y40.586 E175.95819
G1 X170.392 Y156.55 E183.59469
G1 X170.598 Y156.813 E183.61024
G1 X170.737 Y157.117 E183.62581
G1 X170.799 Y157.445 E183.64135
G1 X170.781 Y157.779 E183.65693
G1 X170.686 Y158.099 E183.67247
G1 X170.392 Y158.53 E183.69676
G1 X169.401 Y159.521 E183.76202
G1 X169.138 Y159.727 E183.77758
G1 X168.834 Y159.866 E183.79314
G1 X168.506 Y159.928 E183.80869
G1 X168.172 Y159.91 E183.82426
G1 X167.852 Y159.815 E183.8398
G1 X167.421 Y159.521 E183.8641
G1 X51.455 Y43.557 E191.50059
G1 X51.249 Y43.294 E191.51615
G1 X51.11 Y42.99 E191.53171
G1 X51.048 Y42.662 E191.54726
M204 S3000
M205 X10 Y10
G0 F3000 X50.486 Y42.522
M204 S1800
M205 X8 Y8
G1 F2400 X50.534 Y42.129 E191.56569
G1 X50.661 Y41.755 E191.58408
G1 X50.861 Y41.413 E191.60253
G1 X51.059 Y41.181 E191.61673
G1 X52.05 Y40.19 E191.68199
G1 X52.356 Y39.94 E191.70039
G1 X52.707 Y39.757 E191.71882
G1 X53.087 Y39.647 E191.73724
G1 X53.481 Y39.617 E191.75564
G1 X53.874 Y39.665 E191.77408
G1 X54.248 Y39.792 E191.79247
G1 X54.59 Y39.992 E191.81092
G1 X54.822 Y40.19 E191.82512
G1 X170.788 Y156.154 E199.46162
G1 X171.038 Y156.46 E199.48001
G1 X171.221 Y156.811 E199.49845
G1 X171.331 Y157.191 E199.51687
G1 X171.361 Y157.585 E199.53527
G1 X171.313 Y157.978 E199.5537
G1 X171.186 Y158.352 E199.57209
G1 X170.986 Y158.694 E199.59054
G1 X170.788 Y158.926 E199.60474
G1 X169.797 Y159.917 E199.67
G1 X169.491 Y160.167 E199.6884
G1 X169.14 Y160.35 E199.70684
G1 X168.76 Y160.46 E199.72526
G1 X168.366 Y160.49 E199.74366
G1 X167.973 Y160.442 E199.76209
G1 X167.599 Y160.315 E199.78048
G1 X167.257 Y160.115 E199.79893
G1 X167.025 Y159.917 E199.81313
G1 X51.059 Y43.953 E207.44963
G1 X50.809 Y43.647 E207.46803
G1 X50.626 Y43.296 E207.48646
G1 X50.516 Y42.916 E207.50488
G1 X50.486 Y42.522 E207.52328
M204 S3000
M205 X10 Y10
G0 F3000 X49.366 Y42.503
M204 S1800
M205 X8 Y8
G1 F2400 X49.416 Y42.01 E207.54635
G1 X49.544 Y41.531 E207.56944
G1 X49.748 Y41.079 E207.59253
G1 X50.022 Y40.665 E207.61565
G1 X50.267 Y40.389 E207.63283
G1 X51.258 Y39.398 E207.69809
G1 X51.636 Y39.077 E207.72118
G1 X52.06 Y38.82 E207.74427
G1 X52.521 Y38.635 E207.7674
G1 X53.004 Y38.526 E207.79046
G1 X53.5 Y38.497 E207.81359
G1 X53.993 Y38.547 E207.83667
G1 X54.472 Y38.675 E207.85975
G1 X54.924 Y38.879 E207.88284
G1 X55.338 Y39.153 E207.90596
G1 X55.614 Y39.398 E207.92315
G1 X171.58 Y155.362 E215.55964
G1 X171.901 Y155.74 E215.58273
G1 X172.158 Y156.164 E215.60582
G1 X172.343 Y156.625 E215.62895
G1 X172.452 Y157.108 E215.652
G1 X172.481 Y157.604 E215.67514
G1 X172.431 Y158.097 E215.69821
G1 X172.303 Y158.576 E215.7213
G1 X172.099 Y159.028 E215.74439
G1 X171.825 Y159.442 E215.76751
G1 X171.58 Y159.718 E215.78469
G1 X170.589 Y160.709 E215.84995
G1 X170.211 Y161.03 E215.87304
G1 X169.787 Y161.287 E215.89613
G1 X169.326 Y161.472 E215.91926
G1 X168.843 Y161.581 E215.94232
G1 X168.347 Y161.61 E215.96545
G1 X167.854 Y161.56 E215.98853
G1 X167.375 Y161.432 E216.01161
G1 X166.923 Y161.228 E216.0347
G1 X166.509 Y160.954 E216.05782
G1 X166.233 Y160.709 E216.07501
G1 X50.267 Y44.745 E223.7115
G1 X49.946 Y44.367 E223.73459
G1 X49.689 Y43.943 E223.75768
G1 X49.504 Y43.482 E223.78081
