;FLAVOR:Marlin
;TIME:24834
;Filament used: 21.4102m
;Layer height: 0.2
;MINX:43.777
;MINY:24.8
;MINZ:0.2
;MAXX:166.223
;MAXY:185.2
;MAXZ:20.075
;Generated with Cura_SteamEngine 5.0.0-beta+1
M140 S60
M105
M190 S60
M104 S200
M105
M109 S200
M82 ;absolute extrusion mode
G21 ;metric values
G90 ;absolute positioning
M82 ;set extruder to absolute mode
M107 ;start with the fan off
G28 X0 Y0 ;move X/Y to min endstops
G28 Z0 ;move Z to min endstops
G1 Z15.0 F100 ;move the platform down 15mm
G92 E0 ;zero the extruded length
G1 F200 E3 ;extrude 3mm of feed stock
G92 E0 ;zero the extruded length again
G1 F100
G0 Y20 F100
M117 Printing...
G5
G92 E0
G92 E0
G1 F2400 E-6
;LAYER_COUNT:100
;LAYER:0
M107
M204 S3000
M205 X10 Y10
G1 F600 Z0.275
G0 F3000 X54.132 Y27.31 Z0.275
G0 X53.777 Y29
M204 S1800
M205 X8 Y8
;TYPE:SKIRT
G1 F600 Z0.2
G1 F2400 E0
G1 X53.817 Y28.422 E0.02698
G1 X53.936 Y27.855 E0.05396
G1 X54.132 Y27.31 E0.08092
G1 X54.401 Y26.797 E0.1079
G1 X54.738 Y26.326 E0.13486
G1 X55.137 Y25.906 E0.16184
G1 X55.59 Y25.544 E0.18884
G1 X56.088 Y25.249 E0.21579
G1 X56.622 Y25.024 E0.24278
G1 X57.182 Y24.876 E0.26975
G1 X57.977 Y24.8 E0.30693
G1 X152.023 Y24.8 E4.68611
G1 X152.601 Y24.84 E4.71309
G1 X153.168 Y24.959 E4.74006
G1 X153.713 Y25.155 E4.76703
G1 X154.226 Y25.424 E4.79401
G1 X154.697 Y25.761 E4.82097
G1 X155.117 Y26.16 E4.84795
G1 X155.479 Y26.613 E4.87495
G1 X155.774 Y27.111 E4.9019
G1 X155.999 Y27.645 E4.92888
G1 X156.147 Y28.205 E4.95586
G1 X156.223 Y29 E4.99304
G1 X156.223 Y56.827 E6.28878
G1 X159.644 Y56.827 E6.44808
G1 X160.222 Y56.867 E6.47506
G1 X160.789 Y56.986 E6.50204
G1 X161.334 Y57.182 E6.529
G1 X161.847 Y57.451 E6.55598
G1 X162.318 Y57.788 E6.58294
G1 X162.614 Y58.057 E6.60157
G1 X164.993 Y60.436 E6.75823
G1 X165.373 Y60.873 E6.7852
G1 X165.69 Y61.358 E6.81218
G1 X165.937 Y61.882 E6.83915
G1 X166.109 Y62.435 E6.86612
G1 X166.204 Y63.007 E6.89312
G1 X166.223 Y63.406 E6.91172
G1 X166.223 Y66.649 E7.06272
G1 X166.183 Y67.227 E7.0897
G1 X166.064 Y67.794 E7.11668
G1 X165.868 Y68.339 E7.14365
G1 X165.599 Y68.852 E7.17062
G1 X165.262 Y69.323 E7.19759
G1 X164.992 Y69.619 E7.21624
G1 X162.613 Y71.997 E7.37287
G1 X162.176 Y72.378 E7.39987
G1 X161.691 Y72.694 E7.42682
G1 X161.167 Y72.941 E7.4538
G1 X160.614 Y73.113 E7.48076
G1 X160.042 Y73.208 E7.50776
G1 X159.644 Y73.227 E7.52632
G1 X156.223 Y73.227 E7.68561
G1 X156.223 Y181 E12.70398
G1 X156.183 Y181.578 E12.73095
G1 X156.064 Y182.145 E12.75793
G1 X155.868 Y182.69 E12.7849
G1 X155.599 Y183.203 E12.81187
G1 X155.262 Y183.674 E12.83884
G1 X154.863 Y184.094 E12.86582
G1 X154.41 Y184.456 E12.89282
G1 X153.912 Y184.751 E12.91977
G1 X153.378 Y184.976 E12.94675
G1 X152.818 Y185.124 E12.97372
G1 X152.023 Y185.2 E13.01091
G1 X57.977 Y185.2 E17.39009
G1 X57.399 Y185.16 E17.41706
G1 X56.832 Y185.041 E17.44404
G1 X56.287 Y184.845 E17.47101
G1 X55.774 Y184.576 E17.49798
G1 X55.303 Y184.239 E17.52495
G1 X54.883 Y183.84 E17.55192
G1 X54.521 Y183.387 E17.57893
G1 X54.226 Y182.889 E17.60588
G1 X54.001 Y182.355 E17.63286
G1 X53.853 Y181.795 E17.65983
G1 X53.777 Y181 E17.69702
G1 X53.777 Y73.2 E22.71664
G1 X50.35 Y73.2 E22.87621
G1 X49.772 Y73.16 E22.90319
G1 X49.205 Y73.041 E22.93017
G1 X48.66 Y72.845 E22.95714
G1 X48.147 Y72.576 E22.98411
G1 X47.676 Y72.239 E23.01108
G1 X47.38 Y71.97 E23.0297
G1 X45.007 Y69.597 E23.18597
G1 X44.627 Y69.16 E23.21293
G1 X44.31 Y68.675 E23.23991
G1 X44.063 Y68.151 E23.26689
G1 X43.891 Y67.598 E23.29385
G1 X43.796 Y67.026 E23.32085
G1 X43.777 Y66.627 E23.33945
G1 X43.777 Y63.371 E23.49107
G1 X43.817 Y62.793 E23.51805
G1 X43.936 Y62.226 E23.54502
G1 X44.132 Y61.681 E23.57199
G1 X44.401 Y61.168 E23.59896
G1 X44.738 Y60.697 E23.62593
G1 X45.007 Y60.401 E23.64456
G1 X47.378 Y58.03 E23.80069
G1 X47.815 Y57.65 E23.82766
G1 X48.3 Y57.333 E23.85464
G1 X48.824 Y57.086 E23.88161
G1 X49.377 Y56.914 E23.90858
G1 X49.949 Y56.819 E23.93558
G1 X50.348 Y56.8 E23.95418
G1 X53.777 Y56.8 E24.11385
G1 X53.777 Y29 E25.40833
M204 S3000
M205 X10 Y10
G0 F3000 X54.337 Y29
M204 S1800
M205 X8 Y8
G1 F2400 X54.377 Y28.462 E25.43345
G1 X54.496 Y27.936 E25.45856
G1 X54.691 Y27.434 E25.48364
G1 X54.959 Y26.965 E25.50879
G1 X55.292 Y26.542 E25.53386
G1 X55.685 Y26.172 E25.55899
G1 X56.128 Y25.865 E25.58409
G1 X56.612 Y25.626 E25.60923
G1 X57.125 Y25.461 E25.63432
G1 X57.657 Y25.374 E25.65942
G1 X57.977 Y25.36 E25.67433
G1 X152.023 Y25.36 E30.05351
G1 X152.561 Y25.4 E30.07863
G1 X153.087 Y25.519 E30.10374
G1 X153.589 Y25.714 E30.12882
G1 X154.058 Y25.982 E30.15397
G1 X154.481 Y26.315 E30.17904
G1 X154.851 Y26.708 E30.20417
G1 X155.158 Y27.151 E30.22927
G1 X155.397 Y27.635 E30.25441
G1 X155.562 Y28.148 E30.2795
G1 X155.649 Y28.68 E30.3046
G1 X155.663 Y29 E30.31951
G1 X155.663 Y57.387 E31.64133
G1 X159.644 Y57.387 E31.8267
G1 X160.182 Y57.427 E31.85182
G1 X160.708 Y57.546 E31.87694
G1 X161.21 Y57.741 E31.90201
G1 X161.679 Y58.009 E31.92717
G1 X162.218 Y58.453 E31.95968
G1 X164.597 Y60.832 E32.11634
G1 X164.949 Y61.241 E32.14147
G1 X165.237 Y61.697 E32.16658
G1 X165.454 Y62.19 E32.19167
G1 X165.596 Y62.71 E32.21677
G1 X165.663 Y63.406 E32.24932
G1 X165.663 Y66.649 E32.40033
G1 X165.623 Y67.187 E32.42545
G1 X165.504 Y67.713 E32.45056
G1 X165.309 Y68.215 E32.47564
G1 X165.041 Y68.684 E32.50079
G1 X164.596 Y69.223 E32.53334
G1 X162.217 Y71.601 E32.68997
G1 X161.809 Y71.953 E32.71506
G1 X161.353 Y72.241 E32.74017
G1 X160.859 Y72.458 E32.7653
G1 X160.339 Y72.6 E32.7904
G1 X159.644 Y72.667 E32.82291
G1 X155.663 Y72.667 E33.00828
G1 X155.663 Y181 E38.05272
G1 X155.623 Y181.538 E38.07784
G1 X155.504 Y182.064 E38.10295
G1 X155.309 Y182.566 E38.12803
G1 X155.041 Y183.035 E38.15318
G1 X154.708 Y183.458 E38.17825
G1 X154.315 Y183.828 E38.20338
G1 X153.872 Y184.135 E38.22848
G1 X153.388 Y184.374 E38.25362
G1 X152.875 Y184.539 E38.27871
G1 X152.343 Y184.626 E38.30381
G1 X152.023 Y184.64 E38.31872
G1 X57.977 Y184.64 E42.6979
G1 X57.439 Y184.6 E42.72302
G1 X56.913 Y184.481 E42.74813
G1 X56.411 Y184.286 E42.77321
G1 X55.942 Y184.018 E42.79836
G1 X55.519 Y183.685 E42.82343
G1 X55.149 Y183.292 E42.84856
G1 X54.842 Y182.849 E42.87366
G1 X54.603 Y182.365 E42.8988
G1 X54.438 Y181.852 E42.92389
G1 X54.351 Y181.32 E42.94899
G1 X54.337 Y181 E42.9639
G1 X54.337 Y72.64 E48.0096
G1 X50.35 Y72.64 E48.19525
G1 X49.812 Y72.6 E48.22037
G1 X49.286 Y72.481 E48.24548
G1 X48.784 Y72.286 E48.27056
G1 X48.315 Y72.018 E48.29571
G1 X47.776 Y71.574 E48.32823
G1 X45.403 Y69.201 E48.4845
G1 X45.051 Y68.792 E48.50962
G1 X44.763 Y68.336 E48.53474
G1 X44.546 Y67.843 E48.55982
G1 X44.404 Y67.323 E48.58492
G1 X44.337 Y66.627 E48.61748
G1 X44.337 Y63.371 E48.76909
G1 X44.377 Y62.833 E48.79421
G1 X44.496 Y62.307 E48.81932
G1 X44.691 Y61.805 E48.8444
G1 X44.959 Y61.336 E48.86955
G1 X45.403 Y60.797 E48.90207
G1 X47.774 Y58.426 E49.0582
G1 X48.183 Y58.074 E49.08333
G1 X48.639 Y57.786 E49.10844
G1 X49.132 Y57.569 E49.13352
G1 X49.652 Y57.427 E49.15862
G1 X50.348 Y57.36 E49.19118
G1 X54.337 Y57.36 E49.37693
G1 X54.337 Y29 E50.69749
M204 S3000
M205 X10 Y10
G0 F3000 X54.897 Y29
M204 S1800
M205 X8 Y8
G1 F2400 X54.937 Y28.506 E50.72057
G1 X55.056 Y28.024 E50.74368
G1 X55.25 Y27.568 E50.76676
G1 X55.515 Y27.149 E50.78984
G1 X55.845 Y26.778 E50.81296
G1 X56.229 Y26.464 E50.83606
G1 X56.659 Y26.216 E50.85918
G1 X57.122 Y26.041 E50.88222
G1 X57.609 Y25.942 E50.90536
G1 X57.977 Y25.92 E50.92253
G1 X152.023 Y25.92 E55.30171
G1 X152.517 Y25.96 E55.32478
G1 X152.999 Y26.079 E55.3479
G1 X153.455 Y26.273 E55.37098
G1 X153.874 Y26.538 E55.39406
G1 X154.245 Y26.868 E55.41718
G1 X154.559 Y27.252 E55.44028
G1 X154.807 Y27.682 E55.46339
G1 X154.982 Y28.145 E55.48644
G1 X155.081 Y28.632 E55.50958
G1 X155.103 Y29 E55.52675
G1 X155.103 Y57.947 E56.87464
G1 X159.644 Y57.947 E57.08609
G1 X160.138 Y57.987 E57.10917
G1 X160.62 Y58.106 E57.13229
G1 X161.076 Y58.3 E57.15536
G1 X161.495 Y58.565 E57.17845
G1 X161.822 Y58.849 E57.19861
G1 X164.201 Y61.228 E57.35528
G1 X164.522 Y61.606 E57.37837
G1 X164.779 Y62.03 E57.40145
G1 X164.964 Y62.491 E57.42458
G1 X165.073 Y62.974 E57.44764
G1 X165.103 Y63.406 E57.4678
G1 X165.103 Y66.649 E57.61881
G1 X165.063 Y67.143 E57.64189
G1 X164.944 Y67.625 E57.66501
G1 X164.75 Y68.081 E57.68808
G1 X164.485 Y68.5 E57.71117
G1 X164.2 Y68.827 E57.73137
G1 X161.821 Y71.205 E57.88799
G1 X161.444 Y71.527 E57.91108
G1 X161.019 Y71.783 E57.93418
G1 X160.559 Y71.968 E57.95727
G1 X160.075 Y72.077 E57.98037
G1 X159.644 Y72.107 E58.00049
G1 X155.103 Y72.107 E58.21194
G1 X155.103 Y181 E63.28245
G1 X155.063 Y181.494 E63.30553
G1 X154.944 Y181.976 E63.32865
G1 X154.75 Y182.432 E63.35172
G1 X154.485 Y182.851 E63.37481
G1 X154.155 Y183.222 E63.39793
G1 X153.771 Y183.536 E63.42102
G1 X153.341 Y183.784 E63.44414
G1 X152.878 Y183.959 E63.46719
G1 X152.391 Y184.058 E63.49033
G1 X152.023 Y184.08 E63.50749
G1 X57.977 Y184.08 E67.88667
G1 X57.483 Y184.04 E67.90975
G1 X57.001 Y183.921 E67.93286
G1 X56.545 Y183.727 E67.95594
G1 X56.126 Y183.462 E67.97903
G1 X55.755 Y183.132 E68.00215
G1 X55.441 Y182.748 E68.02524
G1 X55.193 Y182.318 E68.04836
G1 X55.018 Y181.855 E68.0714
G1 X54.919 Y181.368 E68.09455
G1 X54.897 Y181 E68.11171
G1 X54.897 Y72.08 E73.18348
G1 X50.35 Y72.08 E73.39521
G1 X49.856 Y72.04 E73.41829
G1 X49.374 Y71.921 E73.44141
G1 X48.918 Y71.727 E73.46448
G1 X48.499 Y71.462 E73.48757
G1 X48.172 Y71.178 E73.50773
G1 X45.799 Y68.805 E73.664
G1 X45.478 Y68.427 E73.68709
G1 X45.221 Y68.003 E73.71018
G1 X45.036 Y67.542 E73.73331
G1 X44.927 Y67.059 E73.75636
G1 X44.897 Y66.627 E73.77653
G1 X44.897 Y63.371 E73.92814
G1 X44.937 Y62.877 E73.95122
G1 X45.056 Y62.395 E73.97434
G1 X45.25 Y61.939 E73.99741
G1 X45.515 Y61.52 E74.0205
G1 X45.799 Y61.193 E74.04067
G1 X48.17 Y58.822 E74.1968
G1 X48.548 Y58.501 E74.21989
G1 X48.972 Y58.244 E74.24298
G1 X49.433 Y58.059 E74.26611
G1 X49.916 Y57.95 E74.28916
G1 X50.348 Y57.92 E74.30933
G1 X54.897 Y57.92 E74.52115
G1 X54.897 Y29 E75.86779
M204 S3000
M205 X10 Y10
G0 F3000 X55.457 Y29
M204 S1800
M205 X8 Y8
G1 F2400 X55.497 Y28.553 E75.88868
G1 X55.615 Y28.121 E75.90954
G1 X55.809 Y27.716 E75.93045
G1 X56.071 Y27.352 E75.95133
G1 X56.393 Y27.04 E75.97221
G1 X56.766 Y26.79 E75.99312
G1 X57.177 Y26.61 E76.01401
G1 X57.613 Y26.506 E76.03488
G1 X57.977 Y26.48 E76.05187
G1 X152.023 Y26.48 E80.43105
G1 X152.47 Y26.52 E80.45195
G1 X152.902 Y26.638 E80.4728
G1 X153.307 Y26.832 E80.49371
G1 X153.671 Y27.094 E80.51459
G1 X153.983 Y27.416 E80.53547
G1 X154.233 Y27.789 E80.55638
G1 X154.413 Y28.2 E80.57727
G1 X154.517 Y28.636 E80.59814
G1 X154.543 Y29 E80.61513
G1 X154.543 Y58.507 E81.9891
G1 X159.644 Y58.507 E82.22663
G1 X160.091 Y58.547 E82.24753
G1 X160.523 Y58.665 E82.26838
G1 X160.928 Y58.859 E82.28929
G1 X161.426 Y59.245 E82.31863
G1 X163.805 Y61.624 E82.47529
G1 X164.093 Y61.968 E82.49618
G1 X164.315 Y62.358 E82.51708
G1 X164.464 Y62.781 E82.53796
G1 X164.543 Y63.406 E82.56729
G1 X164.543 Y66.649 E82.7183
G1 X164.503 Y67.096 E82.7392
G1 X164.385 Y67.528 E82.76005
G1 X164.191 Y67.933 E82.78096
G1 X163.805 Y68.431 E82.8103
G1 X161.426 Y70.809 E82.96693
G1 X161.081 Y71.097 E82.98785
G1 X160.692 Y71.319 E83.00871
G1 X160.269 Y71.468 E83.02959
G1 X159.644 Y71.547 E83.05893
G1 X154.543 Y71.547 E83.29645
G1 X154.543 Y181 E88.39304
G1 X154.503 Y181.447 E88.41394
G1 X154.385 Y181.879 E88.43479
G1 X154.191 Y182.284 E88.4557
G1 X153.929 Y182.648 E88.47659
G1 X153.607 Y182.96 E88.49746
G1 X153.234 Y183.21 E88.51837
G1 X152.823 Y183.39 E88.53926
G1 X152.387 Y183.494 E88.56014
G1 X152.023 Y183.52 E88.57713
G1 X57.977 Y183.52 E92.9563
G1 X57.53 Y183.48 E92.9772
G1 X57.098 Y183.362 E92.99805
G1 X56.693 Y183.168 E93.01897
G1 X56.329 Y182.906 E93.03985
G1 X56.017 Y182.584 E93.06073
G1 X55.767 Y182.211 E93.08163
G1 X55.587 Y181.8 E93.10253
G1 X55.483 Y181.364 E93.1234
G1 X55.457 Y181 E93.14039
G1 X55.457 Y71.52 E98.23824
G1 X50.35 Y71.52 E98.47604
G1 X49.903 Y71.48 E98.49694
G1 X49.471 Y71.362 E98.51779
G1 X49.066 Y71.168 E98.5387
G1 X48.568 Y70.782 E98.56804
G1 X46.195 Y68.409 E98.72431
G1 X45.907 Y68.065 E98.7452
G1 X45.685 Y67.675 E98.76609
G1 X45.536 Y67.252 E98.78698
G1 X45.457 Y66.627 E98.81631
G1 X45.457 Y63.371 E98.96792
G1 X45.497 Y62.924 E98.98882
G1 X45.615 Y62.492 E99.00967
G1 X45.809 Y62.087 E99.03059
G1 X46.195 Y61.589 E99.05992
G1 X48.566 Y59.218 E99.21606
G1 X48.91 Y58.93 E99.23695
G1 X49.3 Y58.708 E99.25785
G1 X49.723 Y58.559 E99.27873
G1 X50.348 Y58.48 E99.30806
G1 X55.457 Y58.48 E99.54596
G1 X55.457 Y29 E100.91867
M204 S3000
M205 X10 Y10
G0 F3000 X56.017 Y29
M204 S1800
M205 X8 Y8
G1 F2400 X56.057 Y28.607 E100.93707
G1 X56.175 Y28.229 E100.9555
G1 X56.366 Y27.883 E100.97391
G1 X56.623 Y27.582 E100.99234
G1 X56.936 Y27.34 E101.01076
G1 X57.29 Y27.164 E101.02917
G1 X57.673 Y27.064 E101.0476
G1 X57.977 Y27.04 E101.0618
G1 X152.023 Y27.04 E105.44098
G1 X152.416 Y27.08 E105.45937
G1 X152.794 Y27.198 E105.47781
G1 X153.14 Y27.389 E105.49621
G1 X153.441 Y27.646 E105.51464
G1 X153.683 Y27.959 E105.53306
G1 X153.859 Y28.313 E105.55147
G1 X153.959 Y28.696 E105.56991
G1 X153.983 Y29 E105.5841
G1 X153.983 Y59.067 E106.98415
G1 X159.644 Y59.067 E107.24775
G1 X160.037 Y59.107 E107.26614
G1 X160.415 Y59.225 E107.28458
G1 X160.761 Y59.416 E107.30299
G1 X161.03 Y59.641 E107.31932
G1 X163.409 Y62.02 E107.47598
G1 X163.659 Y62.326 E107.49438
G1 X163.842 Y62.677 E107.51281
G1 X163.952 Y63.057 E107.53123
G1 X163.983 Y63.406 E107.54754
G1 X163.983 Y66.649 E107.69855
G1 X163.943 Y67.042 E107.71695
G1 X163.825 Y67.42 E107.73539
G1 X163.634 Y67.766 E107.75379
G1 X163.409 Y68.035 E107.77012
G1 X161.03 Y70.413 E107.92675
G1 X160.723 Y70.663 E107.94518
G1 X160.373 Y70.846 E107.96357
G1 X159.993 Y70.956 E107.98199
G1 X159.644 Y70.987 E107.99831
G1 X153.983 Y70.987 E108.26191
G1 X153.983 Y181 E113.38457
G1 X153.943 Y181.393 E113.40297
G1 X153.825 Y181.771 E113.42141
G1 X153.634 Y182.117 E113.43981
G1 X153.377 Y182.418 E113.45824
G1 X153.064 Y182.66 E113.47666
G1 X152.71 Y182.836 E113.49507
G1 X152.327 Y182.936 E113.5135
G1 X152.023 Y182.96 E113.5277
G1 X57.977 Y182.96 E117.90688
G1 X57.584 Y182.92 E117.92527
G1 X57.206 Y182.802 E117.94371
G1 X56.86 Y182.611 E117.96211
G1 X56.559 Y182.354 E117.98054
G1 X56.317 Y182.041 E117.99897
G1 X56.141 Y181.687 E118.01738
G1 X56.041 Y181.304 E118.03581
G1 X56.017 Y181 E118.05001
G1 X56.017 Y70.96 E123.17393
G1 X50.35 Y70.96 E123.43781
G1 X49.957 Y70.92 E123.4562
G1 X49.579 Y70.802 E123.47464
G1 X49.233 Y70.611 E123.49305
G1 X48.964 Y70.386 E123.50938
G1 X46.591 Y68.013 E123.66564
G1 X46.341 Y67.707 E123.68404
G1 X46.158 Y67.356 E123.70247
G1 X46.048 Y66.976 E123.72089
G1 X46.017 Y66.627 E123.73721
G1 X46.017 Y63.371 E123.88882
G1 X46.057 Y62.978 E123.90722
G1 X46.175 Y62.6 E123.92566
G1 X46.366 Y62.254 E123.94406
G1 X46.591 Y61.985 E123.96039
G1 X48.962 Y59.614 E124.11652
G1 X49.268 Y59.364 E124.13492
G1 X49.619 Y59.181 E124.15335
G1 X49.999 Y59.071 E124.17177
G1 X50.348 Y59.04 E124.18809
G1 X56.017 Y59.04 E124.45206
G1 X56.017 Y29 E125.85085
M204 S3000
M205 X10 Y10
G0 F3000 X56.577 Y29
M204 S1800
M205 X8 Y8
G1 F2400 X56.617 Y28.668 E125.86642
G1 X56.734 Y28.356 E125.88194
G1 X56.922 Y28.079 E125.89753
G1 X57.17 Y27.856 E125.91306
G1 X57.464 Y27.697 E125.92862
G1 X57.977 Y27.6 E125.95293
G1 X152.023 Y27.6 E130.33211
G1 X152.355 Y27.64 E130.34768
G1 X152.667 Y27.757 E130.36319
G1 X152.944 Y27.945 E130.37878
G1 X153.167 Y28.193 E130.39431
G1 X153.326 Y28.487 E130.40987
G1 X153.423 Y29 E130.43419
G1 X153.423 Y59.627 E131.86031
G1 X159.644 Y59.627 E132.14998
G1 X159.976 Y59.667 E132.16555
G1 X160.288 Y59.784 E132.18107
G1 X160.634 Y60.037 E132.20103
G1 X163.013 Y62.416 E132.35769
G1 X163.219 Y62.679 E132.37325
G1 X163.358 Y62.983 E132.38881
G1 X163.423 Y63.406 E132.40874
G1 X163.423 Y66.649 E132.55975
G1 X163.383 Y66.981 E132.57532
G1 X163.266 Y67.293 E132.59083
G1 X163.013 Y67.639 E132.61079
G1 X160.634 Y70.017 E132.76742
G1 X160.371 Y70.223 E132.78298
G1 X160.067 Y70.362 E132.79854
G1 X159.644 Y70.427 E132.81847
G1 X153.423 Y70.427 E133.10815
G1 X153.423 Y181 E138.25689
G1 X153.383 Y181.332 E138.27246
G1 X153.266 Y181.644 E138.28797
G1 X153.078 Y181.921 E138.30356
G1 X152.83 Y182.144 E138.31909
