;FLAVOR:Marlin
;TIME:959
;Filament used: 0.746677m
;Layer height: 0.2
;MINX:55.449
;MINY:63.949
;MINZ:0.2
;MAXX:141.666
;MAXY:127.259
;MAXZ:3
;Generated with Cura_SteamEngine 5.0.0-beta+1
M140 S60
M105
M190 S60
M104 S200
M105
M109 S200
M82 ;absolute extrusion mode
G21 ;metric values
G90 ;absolute positioning
M82 ;set extruder to absolute mode
M107 ;start with the fan off
G28 X0 Y0 ;move X/Y to min endstops
G28 Z0 ;move Z to min endstops
G1 Z15.0 F100 ;move the platform down 15mm
G92 E0 ;zero the extruded length
G1 F200 E3 ;extrude 3mm of feed stock
G92 E0 ;zero the extruded length again
G1 F100
G0 Y20 F100
M117 Printing...
G5
G92 E0
G92 E0
G1 F2400 E-6
;LAYER_COUNT:15
;LAYER:0
M107
M204 S3000
M205 X10 Y10
G1 F600 Z0.275
G0 F3000 X57.797 Y66.832 Z0.275
G1 F600 Z0.2
G0 F3000 X55.449 Y73.168
M204 S1800
M205 X8 Y8
;TYPE:SKIRT
G1 F2400 E0
G1 X55.453 Y72.589 E0.02696
G1 X55.536 Y72.016 E0.05392
G1 X55.697 Y71.459 E0.08092
G1 X55.91 Y70.974 E0.10558
G1 X56.312 Y70.196 E0.14636
G1 X56.444 Y69.331 E0.18711
G1 X56.571 Y68.766 E0.21407
G1 X56.774 Y68.223 E0.24106
G1 X57.05 Y67.714 E0.26803
G1 X57.393 Y67.247 E0.29501
G1 X57.797 Y66.832 E0.32198
G1 X58.255 Y66.477 E0.34896
G1 X58.712 Y66.21 E0.3736
G1 X59.494 Y65.817 E0.41436
G1 X60.107 Y65.197 E0.45495
G1 X60.542 Y64.814 E0.48194
G1 X61.025 Y64.494 E0.50892
G1 X61.547 Y64.244 E0.53587
G1 X62.099 Y64.068 E0.56285
G1 X62.67 Y63.97 E0.58983
G1 X63.249 Y63.951 E0.6168
G1 X63.78 Y64.004 E0.64165
G1 X64.641 Y64.146 E0.68228
G1 X65.502 Y64.004 E0.72292
G1 X66.079 Y63.949 E0.74991
G1 X66.658 Y63.975 E0.77689
G1 X67.227 Y64.079 E0.80383
G1 X67.777 Y64.261 E0.8308
G1 X68.297 Y64.517 E0.85779
G1 X68.777 Y64.842 E0.88479
G1 X69.175 Y65.197 E0.90962
G1 X69.788 Y65.817 E0.95022
G1 X70.57 Y66.21 E0.99097
G1 X71.068 Y66.505 E1.01792
G1 X71.522 Y66.866 E1.04493
G1 X71.921 Y67.285 E1.07187
G1 X72.259 Y67.756 E1.09887
G1 X72.529 Y68.269 E1.12586
G1 X72.725 Y68.813 E1.15279
G1 X72.838 Y69.331 E1.17747
G1 X72.97 Y70.196 E1.21822
G1 X73.372 Y70.974 E1.25899
G1 X73.602 Y71.506 E1.28598
G1 X73.756 Y72.065 E1.31298
G1 X73.833 Y72.639 E1.33995
G1 X73.829 Y73.218 E1.36691
G1 X73.746 Y73.791 E1.39387
G1 X73.585 Y74.348 E1.42087
G1 X73.371 Y74.833 E1.44555
G1 X72.97 Y75.608 E1.48618
G1 X72.838 Y76.475 E1.52702
G1 X72.712 Y77.04 E1.55398
G1 X72.508 Y77.582 E1.58094
G1 X72.233 Y78.092 E1.60792
G1 X71.889 Y78.558 E1.63489
G1 X71.485 Y78.973 E1.66186
G1 X71.027 Y79.329 E1.68887
G1 X70.568 Y79.597 E1.71362
G1 X69.787 Y79.988 E1.75429
G1 X69.175 Y80.608 E1.79486
G1 X68.74 Y80.991 E1.82184
G1 X68.257 Y81.311 E1.84882
G1 X67.735 Y81.561 E1.87577
G1 X67.183 Y81.737 E1.90275
G1 X66.612 Y81.835 E1.92973
G1 X66.033 Y81.854 E1.9567
G1 X65.505 Y81.801 E1.98141
G1 X64.641 Y81.659 E2.02218
G1 X63.777 Y81.801 E2.06296
G1 X63.201 Y81.856 E2.0899
G1 X62.622 Y81.83 E2.11689
G1 X62.052 Y81.725 E2.14388
G1 X61.502 Y81.543 E2.17085
G1 X60.983 Y81.287 E2.1978
G1 X60.503 Y80.961 E2.22482
G1 X60.107 Y80.608 E2.24952
G1 X59.495 Y79.988 E2.29008
G1 X58.714 Y79.597 E2.33075
G1 X58.216 Y79.302 E2.35771
G1 X57.762 Y78.942 E2.38469
G1 X57.363 Y78.522 E2.41166
G1 X57.024 Y78.052 E2.43864
G1 X56.754 Y77.54 E2.4656
G1 X56.557 Y76.995 E2.49258
G1 X56.444 Y76.475 E2.51736
G1 X56.312 Y75.608 E2.5582
G1 X55.911 Y74.833 E2.59883
G1 X55.68 Y74.301 E2.62583
G1 X55.526 Y73.743 E2.65279
G1 X55.449 Y73.168 E2.6798
M204 S3000
M205 X10 Y10
G0 F3000 X56.003 Y73.021
M204 S1800
M205 X8 Y8
G1 F2400 X56.025 Y72.483 E2.70487
G1 X56.127 Y71.953 E2.73001
G1 X56.407 Y71.232 E2.76602
G1 X56.852 Y70.37 E2.81119
G1 X56.998 Y69.415 E2.85618
G1 X57.118 Y68.89 E2.88126
G1 X57.315 Y68.388 E2.90637
G1 X57.584 Y67.92 E2.9315
G1 X57.919 Y67.498 E2.95659
G1 X58.313 Y67.129 E2.98173
G1 X58.963 Y66.711 E3.01771
G1 X59.827 Y66.277 E3.06273
G1 X60.506 Y65.59 E3.10771
G1 X60.912 Y65.236 E3.13279
G1 X61.366 Y64.945 E3.1579
G1 X61.859 Y64.725 E3.18304
G1 X62.378 Y64.58 E3.20813
G1 X62.913 Y64.513 E3.23324
G1 X63.689 Y64.557 E3.26943
G1 X64.641 Y64.714 E3.31436
G1 X65.593 Y64.557 E3.35929
G1 X66.13 Y64.508 E3.3844
G1 X66.669 Y64.54 E3.40954
G1 X67.196 Y64.651 E3.43462
G1 X67.702 Y64.839 E3.45975
G1 X68.174 Y65.099 E3.48484
G1 X68.776 Y65.59 E3.52102
G1 X69.455 Y66.277 E3.56599
G1 X70.319 Y66.711 E3.61102
G1 X70.781 Y66.988 E3.6361
G1 X71.198 Y67.33 E3.66121
G1 X71.56 Y67.73 E3.68633
G1 X71.858 Y68.179 E3.71143
G1 X72.087 Y68.667 E3.73653
G1 X72.284 Y69.415 E3.77254
G1 X72.43 Y70.37 E3.81753
G1 X72.875 Y71.232 E3.8627
G1 X73.086 Y71.728 E3.8878
G1 X73.222 Y72.25 E3.91292
G1 X73.279 Y72.786 E3.93802
G1 X73.257 Y73.325 E3.96314
G1 X73.155 Y73.854 E3.98822
G1 X72.874 Y74.575 E4.02425
G1 X72.43 Y75.434 E4.06928
G1 X72.284 Y76.39 E4.11431
G1 X72.164 Y76.916 E4.13943
G1 X71.967 Y77.418 E4.16454
G1 X71.698 Y77.885 E4.18964
G1 X71.363 Y78.308 E4.21477
G1 X70.97 Y78.677 E4.23987
G1 X70.317 Y79.096 E4.27599
G1 X69.454 Y79.528 E4.32093
G1 X68.776 Y80.215 E4.36588
G1 X68.37 Y80.569 E4.39096
G1 X67.916 Y80.86 E4.41607
G1 X67.423 Y81.08 E4.44121
G1 X66.904 Y81.225 E4.4663
G1 X66.369 Y81.292 E4.49141
G1 X65.596 Y81.249 E4.52746
G1 X64.641 Y81.092 E4.57252
G1 X63.686 Y81.249 E4.61759
G1 X63.149 Y81.297 E4.64269
G1 X62.611 Y81.265 E4.66779
G1 X62.083 Y81.153 E4.69292
G1 X61.578 Y80.965 E4.71801
G1 X61.106 Y80.705 E4.74311
G1 X60.506 Y80.215 E4.77918
G1 X59.828 Y79.528 E4.82412
G1 X58.965 Y79.096 E4.86906
G1 X58.502 Y78.82 E4.89416
G1 X58.086 Y78.478 E4.91924
G1 X57.724 Y78.078 E4.94436
G1 X57.425 Y77.629 E4.96948
G1 X57.196 Y77.141 E4.99458
G1 X56.998 Y76.39 E5.03074
G1 X56.852 Y75.434 E5.07577
G1 X56.408 Y74.575 E5.1208
G1 X56.196 Y74.079 E5.14591
G1 X56.06 Y73.558 E5.17099
G1 X56.003 Y73.021 E5.19613
M204 S3000
M205 X10 Y10
G0 F3000 X56.561 Y72.884
M204 S1800
M205 X8 Y8
G1 F2400 X56.604 Y72.39 E5.21922
G1 X56.726 Y71.909 E5.24233
G1 X56.905 Y71.489 E5.26359
G1 X57.391 Y70.548 E5.3129
G1 X57.551 Y69.5 E5.36227
G1 X57.665 Y69.017 E5.38538
G1 X57.855 Y68.559 E5.40847
G1 X58.116 Y68.137 E5.43157
G1 X58.442 Y67.763 E5.45467
G1 X58.823 Y67.446 E5.47775
G1 X59.215 Y67.211 E5.49903
G1 X60.161 Y66.736 E5.54832
G1 X60.904 Y65.984 E5.59755
G1 X61.28 Y65.66 E5.62066
G1 X61.703 Y65.401 E5.64376
G1 X62.162 Y65.213 E5.66685
G1 X62.645 Y65.101 E5.68994
G1 X63.14 Y65.068 E5.71304
G1 X63.598 Y65.109 E5.73445
G1 X64.641 Y65.281 E5.78367
G1 X65.684 Y65.109 E5.8329
G1 X66.179 Y65.068 E5.85603
G1 X66.673 Y65.107 E5.8791
G1 X67.155 Y65.224 E5.9022
G1 X67.612 Y65.418 E5.92531
G1 X68.031 Y65.682 E5.94837
G1 X68.378 Y65.984 E5.96979
G1 X69.121 Y66.736 E6.01902
G1 X70.067 Y67.211 E6.06831
G1 X70.491 Y67.469 E6.09142
G1 X70.868 Y67.791 E6.11451
G1 X71.189 Y68.169 E6.1376
G1 X71.445 Y68.594 E6.1607
G1 X71.629 Y69.055 E6.18381
G1 X71.731 Y69.5 E6.20507
G1 X71.891 Y70.548 E6.25444
G1 X72.377 Y71.489 E6.30375
G1 X72.569 Y71.946 E6.32683
G1 X72.684 Y72.429 E6.34995
G1 X72.721 Y72.923 E6.37302
G1 X72.678 Y73.417 E6.39611
G1 X72.556 Y73.898 E6.41922
G1 X72.377 Y74.318 E6.44048
G1 X71.891 Y75.258 E6.48975
G1 X71.731 Y76.306 E6.53912
G1 X71.617 Y76.789 E6.56222
G1 X71.427 Y77.247 E6.58531
G1 X71.166 Y77.669 E6.60842
G1 X70.841 Y78.043 E6.63149
G1 X70.459 Y78.36 E6.6546
G1 X70.066 Y78.596 E6.67595
G1 X69.119 Y79.07 E6.72526
G1 X68.378 Y79.821 E6.77439
G1 X68.002 Y80.145 E6.7975
G1 X67.579 Y80.404 E6.82059
G1 X67.12 Y80.592 E6.84369
G1 X66.637 Y80.704 E6.86678
G1 X66.142 Y80.737 E6.88988
G1 X65.686 Y80.696 E6.9112
G1 X64.641 Y80.524 E6.96051
G1 X63.596 Y80.696 E7.00983
G1 X63.101 Y80.737 E7.03295
G1 X62.607 Y80.698 E7.05603
G1 X62.125 Y80.58 E7.07913
G1 X61.669 Y80.386 E7.10221
G1 X61.249 Y80.122 E7.12531
G1 X60.904 Y79.821 E7.14663
G1 X60.163 Y79.07 E7.19576
G1 X59.216 Y78.596 E7.24507
G1 X58.792 Y78.338 E7.26818
G1 X58.415 Y78.017 E7.29123
G1 X58.094 Y77.638 E7.31436
G1 X57.838 Y77.213 E7.33746
G1 X57.654 Y76.753 E7.36053
G1 X57.551 Y76.306 E7.38189
G1 X57.391 Y75.258 E7.43126
G1 X56.905 Y74.318 E7.48053
G1 X56.714 Y73.861 E7.5036
G1 X56.598 Y73.378 E7.52673
G1 X56.561 Y72.884 E7.54979
M204 S3000
M205 X10 Y10
G0 F3000 X57.125 Y72.759
M204 S1800
M205 X8 Y8
G1 F2400 X57.191 Y72.315 E7.57069
G1 X57.402 Y71.746 E7.59895
G1 X57.932 Y70.721 E7.65268
G1 X58.105 Y69.584 E7.70624
G1 X58.212 Y69.149 E7.7271
G1 X58.394 Y68.739 E7.74798
G1 X58.646 Y68.368 E7.76887
G1 X58.96 Y68.047 E7.78978
G1 X59.466 Y67.712 E7.81803
G1 X60.494 Y67.196 E7.87159
G1 X61.303 Y66.377 E7.9252
G1 X61.645 Y66.088 E7.94605
G1 X62.033 Y65.863 E7.96693
G1 X62.455 Y65.711 E7.98782
G1 X62.898 Y65.636 E8.00874
G1 X63.506 Y65.662 E8.03708
G1 X64.641 Y65.849 E8.09064
G1 X65.776 Y65.662 E8.1442
G1 X66.223 Y65.628 E8.16508
G1 X66.669 Y65.675 E8.18596
G1 X67.1 Y65.8 E8.20685
G1 X67.502 Y65.999 E8.22774
G1 X67.979 Y66.377 E8.25608
G1 X68.788 Y67.196 E8.30969
G1 X69.816 Y67.712 E8.36325
G1 X70.198 Y67.948 E8.38415
G1 X70.531 Y68.248 E8.40502
G1 X70.806 Y68.602 E8.4259
G1 X71.014 Y68.999 E8.44677
G1 X71.177 Y69.584 E8.47504
G1 X71.35 Y70.721 E8.5286
G1 X71.88 Y71.746 E8.58233
G1 X72.049 Y72.161 E8.60319
G1 X72.143 Y72.6 E8.6241
G1 X72.157 Y73.048 E8.64497
G1 X72.091 Y73.492 E8.66587
G1 X71.879 Y74.061 E8.69415
G1 X71.351 Y75.083 E8.74771
G1 X71.177 Y76.222 E8.80136
G1 X71.07 Y76.657 E8.82222
G1 X70.888 Y77.067 E8.84311
G1 X70.636 Y77.438 E8.86399
G1 X70.322 Y77.759 E8.8849
G1 X69.815 Y78.095 E8.91322
G1 X68.786 Y78.61 E8.9668
G1 X67.979 Y79.428 E9.02031
G1 X67.637 Y79.717 E9.04116
G1 X67.249 Y79.942 E9.06204
G1 X66.827 Y80.094 E9.08293
G1 X66.384 Y80.169 E9.10385
G1 X65.777 Y80.144 E9.13214
G1 X64.641 Y79.957 E9.18575
G1 X63.505 Y80.144 E9.23936
G1 X63.057 Y80.177 E9.26027
G1 X62.611 Y80.13 E9.28116
G1 X62.181 Y80.005 E9.30201
G1 X61.779 Y79.805 E9.32292
G1 X61.303 Y79.428 E9.35119
G1 X60.496 Y78.61 E9.4047
G1 X59.467 Y78.095 E9.45828
G1 X59.086 Y77.859 E9.47915
G1 X58.752 Y77.559 E9.50005
G1 X58.477 Y77.205 E9.52092
G1 X58.268 Y76.808 E9.54181
G1 X58.105 Y76.222 E9.57014
G1 X57.931 Y75.083 E9.62379
G1 X57.403 Y74.061 E9.67735
G1 X57.233 Y73.646 E9.69824
G1 X57.139 Y73.207 E9.71914
G1 X57.125 Y72.759 E9.74001
M204 S3000
M205 X10 Y10
G0 F3000 X57.686 Y73.046
M204 S1800
M205 X8 Y8
G1 F2400 X57.697 Y72.651 E9.75841
G1 X57.787 Y72.266 E9.77682
G1 X57.9 Y72.003 E9.79015
G1 X58.47 Y70.899 E9.84801
G1 X58.658 Y69.669 E9.90594
G1 X58.757 Y69.286 E9.92436
G1 X58.931 Y68.93 E9.94282
G1 X59.172 Y68.617 E9.96121
G1 X59.472 Y68.359 E9.97963
G1 X59.717 Y68.212 E9.99294
G1 X60.829 Y67.654 E10.05087
G1 X61.701 Y66.771 E10.10866
G1 X62.006 Y66.519 E10.12708
G1 X62.355 Y66.333 E10.1455
G1 X62.735 Y66.222 E10.16393
G1 X63.129 Y66.188 E10.18234
G1 X63.415 Y66.214 E10.19572
G1 X64.641 Y66.416 E10.25357
G1 X65.867 Y66.214 E10.31143
G1 X66.262 Y66.189 E10.32986
G1 X66.653 Y66.244 E10.34825
G1 X67.026 Y66.377 E10.36669
G1 X67.364 Y66.582 E10.38509
G1 X67.581 Y66.771 E10.39849
G1 X68.453 Y67.654 E10.45628
G1 X69.565 Y68.212 E10.51421
G1 X69.899 Y68.424 E10.53263
G1 X70.183 Y68.699 E10.55104
G1 X70.407 Y69.025 E10.56946
G1 X70.56 Y69.39 E10.58789
G1 X70.624 Y69.669 E10.60122
G1 X70.812 Y70.899 E10.65915
G1 X71.382 Y72.003 E10.71701
G1 X71.527 Y72.371 E10.73543
G1 X71.596 Y72.76 E10.75382
G1 X71.585 Y73.156 E10.77227
G1 X71.494 Y73.541 E10.79069
G1 X71.382 Y73.804 E10.804
G1 X70.811 Y74.907 E10.86184
G1 X70.624 Y76.137 E10.91977
G1 X70.525 Y76.52 E10.93819
G1 X70.351 Y76.876 E10.95664
G1 X70.11 Y77.189 E10.97503
G1 X69.811 Y77.447 E10.99342
G1 X69.564 Y77.594 E11.00681
G1 X68.453 Y78.15 E11.06466
G1 X67.581 Y79.034 E11.12248
G1 X67.276 Y79.286 E11.1409
G1 X66.927 Y79.472 E11.15931
G1 X66.547 Y79.583 E11.17775
G1 X66.153 Y79.617 E11.19616
G1 X65.868 Y79.591 E11.20949
G1 X64.641 Y79.389 E11.26739
G1 X63.414 Y79.591 E11.32529
G1 X63.019 Y79.615 E11.34372
G1 X62.628 Y79.56 E11.36211
G1 X62.255 Y79.427 E11.38055
G1 X61.917 Y79.223 E11.39893
G1 X61.701 Y79.034 E11.41229
G1 X60.829 Y78.15 E11.47011
G1 X59.718 Y77.594 E11.52796
G1 X59.384 Y77.382 E11.54638
G1 X59.1 Y77.108 E11.56476
G1 X58.876 Y76.782 E11.58318
G1 X58.722 Y76.417 E11.60162
G1 X58.658 Y76.137 E11.615
G1 X58.471 Y74.907 E11.67293
G1 X57.9 Y73.804 E11.73076
G1 X57.755 Y73.436 E11.74918
G1 X57.686 Y73.046 E11.76762
M204 S3000
M205 X10 Y10
G0 F3000 X58.241 Y72.902
M204 S1800
M205 X8 Y8
G1 F2400 X58.281 Y72.57 E11.78319
G1 X58.397 Y72.26 E11.79861
G1 X59.011 Y71.072 E11.86088
G1 X59.212 Y69.753 E11.923
G1 X59.301 Y69.431 E11.93856
G1 X59.464 Y69.14 E11.95409
G1 X59.692 Y68.895 E11.96968
G1 X59.968 Y68.713 E11.98507
G1 X61.162 Y68.114 E12.04727
G1 X62.1 Y67.164 E12.10944
G1 X62.361 Y66.956 E12.12498
G1 X62.664 Y66.816 E12.14052
G1 X62.992 Y66.752 E12.15608
G1 X63.324 Y66.767 E12.17156
G1 X64.641 Y66.984 E12.23371
G1 X65.958 Y66.767 E12.29586
G1 X66.292 Y66.752 E12.31143
G1 X66.619 Y66.817 E12.32695
G1 X66.923 Y66.957 E12.34254
G1 X67.182 Y67.164 E12.35797
G1 X68.12 Y68.114 E12.42014
G1 X69.314 Y68.713 E12.48234
G1 X69.592 Y68.897 E12.49787
G1 X69.819 Y69.142 E12.51342
G1 X69.982 Y69.434 E12.52899
G1 X70.07 Y69.753 E12.5444
G1 X70.271 Y71.072 E12.60653
G1 X70.885 Y72.26 E12.66879
G1 X71.002 Y72.573 E12.68435
G1 X71.041 Y72.905 E12.69992
G1 X71.001 Y73.236 E12.71545
G1 X70.884 Y73.546 E12.73087
G1 X70.272 Y74.73 E12.79294
G1 X70.07 Y76.053 E12.85525
G1 X69.981 Y76.375 E12.87081
G1 X69.818 Y76.666 E12.88634
G1 X69.59 Y76.911 E12.90192
G1 X69.313 Y77.094 E12.91738
G1 X68.119 Y77.692 E12.97956
G1 X67.182 Y78.641 E13.04166
G1 X66.921 Y78.849 E13.0572
G1 X66.618 Y78.989 E13.07275
G1 X66.29 Y79.053 E13.08831
G1 X65.959 Y79.038 E13.10374
G1 X64.641 Y78.821 E13.16593
G1 X63.323 Y79.038 E13.22813
G1 X62.989 Y79.053 E13.2437
G1 X62.662 Y78.988 E13.25922
G1 X62.359 Y78.847 E13.27479
G1 X62.1 Y78.641 E13.2902
G1 X61.163 Y77.692 E13.3523
G1 X59.969 Y77.094 E13.41448
G1 X59.69 Y76.909 E13.43006
G1 X59.463 Y76.664 E13.44562
G1 X59.3 Y76.373 E13.46115
G1 X59.212 Y76.053 E13.4766
G1 X59.01 Y74.73 E13.53892
G1 X58.398 Y73.546 E13.60098
G1 X58.281 Y73.233 E13.61654
G1 X58.241 Y72.902 E13.63207
M204 S3000
M205 X10 Y10
G0 F3000 X58.809 Y72.785
M204 S1800
M205 X8 Y8
G1 F2400 X58.895 Y72.517 E13.64517
G1 X59.551 Y71.248 E13.71169
G1 X59.766 Y69.837 E13.77815
G1 X59.843 Y69.591 E13.79015
G1 X59.992 Y69.38 E13.80218
G1 X60.219 Y69.213 E13.8153
G1 X61.497 Y68.572 E13.88188
G1 X62.498 Y67.558 E13.94822
G1 X62.706 Y67.404 E13.96028
G1 X62.951 Y67.321 E13.97232
G1 X63.233 Y67.319 E13.98545
G1 X64.641 Y67.551 E14.0519
G1 X66.049 Y67.319 E14.11835
G1 X66.308 Y67.317 E14.13041
G1 X66.555 Y67.393 E14.14244
G1 X66.784 Y67.558 E14.15558
G1 X67.785 Y68.572 E14.22193
G1 X69.063 Y69.213 E14.2885
G1 X69.273 Y69.363 E14.30052
G1 X69.428 Y69.57 E14.31256
G1 X69.516 Y69.837 E14.32565
G1 X69.731 Y71.248 E14.39211
G1 X70.387 Y72.517 E14.45863
G1 X70.469 Y72.762 E14.47066
G1 X70.473 Y73.021 E14.48272
G1 X70.387 Y73.289 E14.49583
G1 X69.731 Y74.557 E14.56231
G1 X69.516 Y75.969 E14.62881
G1 X69.439 Y76.215 E14.64082
G1 X69.29 Y76.426 E14.65284
G1 X69.062 Y76.593 E14.666
G1 X67.786 Y77.232 E14.73245
G1 X66.784 Y78.247 E14.79887
G1 X66.576 Y78.401 E14.81092
G1 X66.331 Y78.484 E14.82296
G1 X66.05 Y78.486 E14.83605
G1 X64.641 Y78.254 E14.90254
G1 X63.232 Y78.486 E14.96903
G1 X62.974 Y78.488 E14.98105
G1 X62.727 Y78.412 E14.99308
G1 X62.498 Y78.247 E15.00622
G1 X61.496 Y77.232 E15.07263
G1 X60.22 Y76.593 E15.13908
G1 X60.009 Y76.443 E15.15114
G1 X59.854 Y76.236 E15.16318
G1 X59.766 Y75.969 E15.17627
G1 X59.551 Y74.557 E15.24278
G1 X58.895 Y73.289 E15.30925
G1 X58.813 Y73.044 E15.32128
G1 X58.809 Y72.785 E15.33335
M204 S3000
M205 X10 Y10
G0 F3000 X59.361 Y72.887
M204 S1800
M205 X8 Y8
G1 F2400 X59.392 Y72.774 E15.3388
G1 X60.09 Y71.423 E15.40961
G1 X60.319 Y69.922 E15.48031
G1 X60.38 Y69.786 E15.48725
G1 X60.47 Y69.714 E15.49262
G1 X61.83 Y69.032 E15.56346
G1 X62.897 Y67.951 E15.63419
G1 X63.025 Y67.877 E15.64107
G1 X63.142 Y67.872 E15.64653
G1 X64.641 Y68.119 E15.71727
G1 X66.14 Y67.872 E15.78801
G1 X66.288 Y67.887 E15.79494
G1 X66.385 Y67.951 E15.80035
G1 X67.452 Y69.032 E15.87107
G1 X68.812 Y69.714 E15.94192
G1 X68.922 Y69.813 E15.94881
G1 X68.963 Y69.922 E15.95423
G1 X69.192 Y71.423 E16.02493
G1 X69.89 Y72.774 E16.09574
G1 X69.921 Y72.92 E16.10269
G1 X69.89 Y73.032 E16.1081
